static/images/cs-storylane-feature-logo.svg

<svg width="214" height="58" viewBox="0 0 214 58" fill="none" xmlns="http://www.w3.org/2000/svg">
<mask id="mask0_1056_2355" style="mask-type:luminance" maskUnits="userSpaceOnUse" x="7" y="7" width="26" height="44">
<path d="M32.4151 7.59766H7.59766V50.2288H32.4151V7.59766Z" fill="white"/>
</mask>
<g mask="url(#mask0_1056_2355)">
<path d="M24.984 8.39967L24.9895 8.40695C25.6539 9.29416 25.4749 10.5553 24.5898 11.2215L9.09349 22.8858C8.96712 22.9808 8.78731 22.9553 8.69242 22.8286L8.17099 22.1324C7.22188 20.8651 7.47771 19.0631 8.74181 18.1116L22.1765 7.9991C23.0616 7.33296 24.3195 7.51245 24.984 8.39967Z" fill="#ED2DA0"/>
<path d="M15.067 49.4274L15.0616 49.4201C14.3971 48.5328 14.5761 47.2716 15.4611 46.6056L30.9187 34.9706C31.0449 34.8754 31.2247 34.901 31.3197 35.0278L31.8412 35.7241C32.7902 36.9912 32.5344 38.7933 31.2703 39.7447L17.8745 49.828C16.9895 50.4941 15.7315 50.3145 15.067 49.4274Z" fill="#ED2DA0"/>
<path d="M17.0033 33.4478L19.7609 31.3751C19.8874 31.2801 19.9131 31.1001 19.8182 30.9731L13.9178 23.0831C13.8229 22.9563 13.6433 22.9305 13.5167 23.0257L10.7592 25.0984C10.6326 25.1936 10.6069 25.3736 10.7018 25.5004L16.6023 33.3904C16.6972 33.5172 16.8767 33.543 17.0033 33.4478Z" fill="#ED2DA0"/>
<path d="M26.5024 34.8156L29.2584 32.741C29.3848 32.6458 29.4104 32.4658 29.3154 32.339L23.4085 24.4518C23.3135 24.3249 23.1339 24.2992 23.0073 24.3944L20.2512 26.4689C20.1247 26.5643 20.0991 26.7444 20.1941 26.8712L26.1012 34.7584C26.1962 34.8852 26.3758 34.911 26.5024 34.8156Z" fill="#ED2DA0"/>
<path d="M29.0351 13.8602L29.0406 13.8675C29.7052 14.7546 29.5264 16.0158 28.6415 16.6821L18.6743 24.1871C18.5079 24.3125 18.2709 24.2791 18.1456 24.1118L16.185 21.495C16.06 21.3281 16.0933 21.0905 16.2601 20.9649L26.2274 13.4598C27.1123 12.7935 28.3703 12.9727 29.0349 13.8598L29.0351 13.8602Z" fill="#ED2DA0"/>
<path d="M10.9735 43.9668L10.968 43.9595C10.3034 43.0724 10.4822 41.8112 11.3671 41.145L21.3342 33.6398C21.5008 33.5144 21.7378 33.548 21.8631 33.7151L23.8235 36.3321C23.9487 36.499 23.9153 36.7364 23.7484 36.8622L13.7813 44.3672C12.8964 45.0335 11.6384 44.8543 10.9738 43.9673L10.9735 43.9668Z" fill="#ED2DA0"/>
</g>
<mask id="mask1_1056_2355" style="mask-type:luminance" maskUnits="userSpaceOnUse" x="41" y="12" width="166" height="37">
<path d="M206.365 12.2407H41.0664V48.0336H206.365V12.2407Z" fill="white"/>
</mask>
<g mask="url(#mask1_1056_2355)">
<path d="M45.4057 38.2954C44.1038 37.7044 43.0734 36.9022 42.3137 35.8888C41.5546 34.8756 41.1388 33.7537 41.0664 32.5231H46.1651C46.2609 33.2957 46.641 33.9347 47.3045 34.441C47.9674 34.948 48.7928 35.201 49.7813 35.201C50.7698 35.201 51.499 35.0081 52.0414 34.6221C52.5836 34.2365 52.855 33.7418 52.855 33.138C52.855 32.4868 52.5234 31.9984 51.8603 31.6725C51.197 31.3465 50.1426 30.9911 48.6965 30.6046C47.2015 30.2425 45.9781 29.8687 45.0263 29.4827C44.0734 29.0972 43.2543 28.5056 42.5669 27.7095C41.8802 26.9135 41.5366 25.8399 41.5366 24.4886C41.5366 23.3787 41.8557 22.3654 42.4952 21.4484C43.1336 20.532 44.0504 19.8079 45.2432 19.277C46.4367 18.7466 47.8405 18.481 49.4563 18.481C51.843 18.481 53.7473 19.0781 55.1699 20.2725C56.5922 21.4668 57.3758 23.0773 57.5206 25.104H52.6752C52.6028 24.3079 52.271 23.6746 51.6805 23.2039C51.0894 22.7335 50.3001 22.498 49.3119 22.498C48.3954 22.498 47.6907 22.6672 47.1964 23.0049C46.7022 23.343 46.455 23.8136 46.455 24.4166C46.455 25.0921 46.7923 25.6052 47.4674 25.9547C48.1421 26.3044 49.1908 26.6604 50.6135 27.0224C52.0602 27.3845 53.2534 27.7589 54.1936 28.1445C55.1338 28.5305 55.9476 29.1275 56.6344 29.9358C57.3213 30.7448 57.6769 31.812 57.7014 33.1387C57.7014 34.2967 57.3815 35.3344 56.7431 36.251C56.104 37.1684 55.1879 37.8859 53.9948 38.404C52.8016 38.9228 51.4093 39.1824 49.818 39.1824C48.2268 39.1824 46.7081 38.8865 45.4063 38.2954H45.4057Z" fill="black"/>
<path d="M67.1299 23.298V32.9972C67.1299 33.673 67.2924 34.1616 67.618 34.4629C67.9437 34.7647 68.4916 34.9152 69.2633 34.9152H71.614V39.1857H68.4318C64.1647 39.1857 62.0312 37.1111 62.0312 32.9609V23.298H59.6445V19.1362H62.0312V14.1777H67.1299V19.1357H71.614V23.2976H67.1299V23.298Z" fill="black"/>
<path d="M78.376 37.8971C76.833 37.0409 75.6212 35.8287 74.7418 34.26C73.8613 32.6919 73.4219 30.8824 73.4219 28.8314C73.4219 26.7803 73.8739 24.9714 74.7778 23.4027C75.6818 21.8344 76.917 20.6223 78.4844 19.7656C80.0514 18.9093 81.7987 18.481 83.7279 18.481C85.657 18.481 87.4038 18.9098 88.9713 19.7656C90.5381 20.6223 91.7737 21.8344 92.6779 23.4027C93.5818 24.9714 94.0336 26.7807 94.0336 28.8314C94.0336 30.882 93.5691 32.6919 92.6416 34.26C91.7132 35.8287 90.4596 37.0409 88.8809 37.8971C87.3019 38.754 85.5363 39.1817 83.5835 39.1817C81.6309 39.1817 79.9189 38.754 78.3764 37.8971H78.376ZM86.1686 34.0974C86.9763 33.6511 87.6208 32.9814 88.1035 32.0885C88.5855 31.1962 88.8265 30.1104 88.8265 28.8314C88.8265 26.9255 88.3257 25.46 87.3258 24.4343C86.3252 23.4093 85.1022 22.8962 83.6555 22.8962C82.2087 22.8962 80.9976 23.4093 80.0213 24.4343C79.045 25.4604 78.5568 26.9261 78.5568 28.8314C78.5568 30.7368 79.0327 32.2033 79.9852 33.2284C80.937 34.2538 82.1366 34.7665 83.5831 34.7665C84.4988 34.7665 85.3605 34.5436 86.1686 34.0968V34.0974Z" fill="black"/>
<path d="M104.838 19.7982C105.887 19.1954 107.086 18.8936 108.436 18.8936V24.2135H107.098C105.507 24.2135 104.308 24.5879 103.5 25.3355C102.692 26.0836 102.289 27.3866 102.289 29.244V39.2328H97.2266V19.1832H102.289V22.2956C102.94 21.2342 103.79 20.4015 104.838 19.7982Z" fill="black"/>
<path d="M131.128 18.7129L118.725 48.2443H113.337L117.676 38.2556L109.648 18.7124H115.326L120.497 32.7184L125.74 18.7124H131.129L131.128 18.7129Z" fill="black"/>
<path d="M138.559 12.4517V39.2329H133.496V12.4517H138.559Z" fill="black"/>
<path d="M141.942 23.6956C142.749 22.1273 143.846 20.9213 145.232 20.0763C146.618 19.2318 148.167 18.8096 149.879 18.8096C151.374 18.8096 152.682 19.1114 153.803 19.7143C154.924 20.3176 155.822 21.0774 156.497 21.9944V19.1354H161.595V39.1851H156.497V36.2537C155.846 37.1947 154.948 37.9728 153.803 38.5878C152.657 39.203 151.337 39.5109 149.843 39.5109C148.155 39.5109 146.618 39.0764 145.232 38.2079C143.846 37.3395 142.749 36.115 141.942 34.5347C141.134 32.9546 140.73 31.1388 140.73 29.088C140.73 27.0375 141.134 25.2643 141.942 23.6956ZM155.774 25.9941C155.291 25.1138 154.64 24.4376 153.821 23.9674C153.001 23.4968 152.122 23.2617 151.181 23.2617C150.241 23.2617 149.374 23.4911 148.578 23.9491C147.782 24.4075 147.137 25.0771 146.643 25.9578C146.149 26.8389 145.902 27.8819 145.902 29.0884C145.902 30.2952 146.148 31.3502 146.643 32.255C147.137 33.1597 147.787 33.8536 148.596 34.3361C149.403 34.8192 150.264 35.0598 151.181 35.0598C152.098 35.0598 153.001 34.8247 153.821 34.354C154.64 33.8834 155.291 33.2081 155.773 32.3274C156.255 31.4471 156.496 30.391 156.496 29.161C156.496 27.9309 156.255 26.8752 155.773 25.9945L155.774 25.9941Z" fill="black"/>
<path d="M182.012 21.1553C183.482 22.6632 184.218 24.769 184.218 27.4708V39.2328H179.155V28.1582C179.155 26.5661 178.757 25.3416 177.962 24.4849C177.166 23.6287 176.082 23.2003 174.707 23.2003C173.333 23.2003 172.206 23.6292 171.399 24.4849C170.59 25.3416 170.187 26.5661 170.187 28.1582V39.2328H165.125V19.1832H170.187V21.6806C170.862 20.812 171.724 20.1307 172.773 19.6355C173.822 19.1413 174.973 18.8936 176.226 18.8936C178.613 18.8936 180.541 19.6478 182.012 21.1553H182.012Z" fill="black"/>
<path d="M206.222 30.3516H191.576C191.696 31.7994 192.203 32.9335 193.095 33.7537C193.987 34.5742 195.084 34.9843 196.386 34.9843C198.266 34.9843 199.604 34.1764 200.4 32.5594H205.86C205.282 34.49 204.173 36.076 202.533 37.3184C200.894 38.5611 198.881 39.1824 196.495 39.1824C194.565 39.1824 192.836 38.7544 191.305 37.8977C189.774 37.0413 188.581 35.8291 187.725 34.2606C186.869 32.6923 186.441 30.883 186.441 28.8319C186.441 26.7807 186.863 24.9355 187.707 23.3671C188.551 21.7988 189.732 20.5927 191.251 19.7477C192.77 18.9032 194.517 18.481 196.495 18.481C198.472 18.481 200.104 18.8914 201.612 19.7115C203.118 20.532 204.288 21.6962 205.119 23.2039C205.951 24.7118 206.367 26.4426 206.367 28.3973C206.367 29.121 206.318 29.7727 206.222 30.3516H206.222ZM201.122 26.9496C201.098 25.6466 200.628 24.6032 199.712 23.8189C198.795 23.0351 197.674 22.6428 196.349 22.6428C195.095 22.6428 194.04 23.0228 193.185 23.7826C192.329 24.5426 191.804 25.5987 191.612 26.9496H201.122Z" fill="black"/>
</g>
</svg>

<svg xmlns="http://www.w3.org/2000/svg" width="214" height="58" fill="none" viewBox="0 0 214 58"><mask id="a" width="26" height="44" x="7" y="7" maskUnits="userSpaceOnUse" style="mask-type:luminance"><path fill="#fff" d="M32.415 7.598H7.598v42.63h24.817z"/></mask><g fill="#ed2da0" mask="url(#a)"><path d="m24.984 8.4.005.007a2.015 2.015 0 0 1-.4 2.815L9.094 22.886a.286.286 0 0 1-.4-.057l-.522-.697a2.88 2.88 0 0 1 .57-4.02L22.178 7.999a2.003 2.003 0 0 1 2.807.4M15.067 49.427l-.005-.007a2.014 2.014 0 0 1 .4-2.814L30.918 34.97a.286.286 0 0 1 .4.057l.522.696a2.88 2.88 0 0 1-.57 4.02L17.874 49.829a2.003 2.003 0 0 1-2.808-.4M17.003 33.448l2.758-2.073a.29.29 0 0 0 .057-.402l-5.9-7.89a.286.286 0 0 0-.401-.057l-2.758 2.072a.29.29 0 0 0-.057.402l5.9 7.89a.286.286 0 0 0 .401.058M26.502 34.816l2.756-2.075a.29.29 0 0 0 .057-.402l-5.907-7.887a.286.286 0 0 0-.4-.058L20.25 26.47a.29.29 0 0 0-.057.402l5.907 7.887a.286.286 0 0 0 .401.058M29.035 13.86l.006.008a2.015 2.015 0 0 1-.4 2.814l-9.967 7.505a.377.377 0 0 1-.528-.075l-1.961-2.617a.38.38 0 0 1 .075-.53l9.967-7.505a2.003 2.003 0 0 1 2.808.4M10.974 43.967l-.006-.008a2.014 2.014 0 0 1 .4-2.814l9.966-7.505a.377.377 0 0 1 .53.075l1.96 2.617a.38.38 0 0 1-.076.53l-9.967 7.505a2.003 2.003 0 0 1-2.807-.4"/></g><mask id="b" width="166" height="37" x="41" y="12" maskUnits="userSpaceOnUse" style="mask-type:luminance"><path fill="#fff" d="M206.365 12.24H41.066v35.794h165.299z"/></mask><g fill="#000" mask="url(#b)"><path d="M45.406 38.295q-1.953-.886-3.092-2.406t-1.248-3.366h5.1q.143 1.16 1.139 1.918.994.76 2.476.76c.989 0 1.718-.193 2.26-.579q.814-.579.814-1.484 0-.977-.995-1.465-.994-.489-3.163-1.068-2.243-.544-3.67-1.122a6.37 6.37 0 0 1-2.46-1.774q-1.03-1.195-1.03-3.22 0-1.665.958-3.04.959-1.375 2.748-2.172 1.79-.796 4.213-.796 3.58 0 5.714 1.791 2.133 1.792 2.35 4.832h-4.845q-.108-1.194-.994-1.9-.887-.706-2.37-.706-1.373 0-2.115.507-.741.507-.741 1.412 0 1.013 1.012 1.538 1.012.524 3.147 1.067 2.17.544 3.58 1.123 1.41.58 2.44 1.79 1.03 1.214 1.067 3.204 0 1.737-.958 3.112-.959 1.376-2.748 2.153t-4.177.778c-1.591 0-3.11-.296-4.412-.887M67.13 23.298v9.7q0 1.013.488 1.465.489.453 1.645.452h2.351v4.27h-3.182q-6.4 0-6.4-6.224v-9.663h-2.387v-4.162h2.386v-4.958h5.099v4.958h4.484v4.162zM78.376 37.897q-2.315-1.284-3.634-3.637-1.32-2.352-1.32-5.429 0-3.076 1.356-5.428a9.43 9.43 0 0 1 3.706-3.637q2.35-1.285 5.244-1.285t5.243 1.285a9.43 9.43 0 0 1 3.707 3.637q1.356 2.353 1.356 5.428 0 3.076-1.392 5.429a9.64 9.64 0 0 1-3.761 3.637q-2.37 1.285-5.297 1.285c-1.953 0-3.665-.428-5.208-1.285m7.793-3.8q1.21-.67 1.935-2.008.722-1.34.722-3.258 0-2.858-1.5-4.397-1.5-1.538-3.67-1.538t-3.635 1.538q-1.464 1.54-1.464 4.397 0 2.86 1.428 4.397t3.598 1.538a5.26 5.26 0 0 0 2.586-.67zM104.838 19.798q1.573-.904 3.598-.904v5.32h-1.338q-2.386 0-3.598 1.122t-1.211 3.908v9.989h-5.062v-20.05h5.062v3.113a7.1 7.1 0 0 1 2.549-2.498M131.128 18.713l-12.403 29.531h-5.388l4.339-9.988-8.028-19.544h5.678l5.171 14.006 5.243-14.006h5.389zM138.559 12.452v26.78h-5.063v-26.78zM141.942 23.696q1.21-2.353 3.29-3.62t4.647-1.266q2.242 0 3.924.904 1.682.905 2.694 2.28v-2.859h5.098v20.05h-5.098v-2.931q-.976 1.41-2.694 2.334-1.719.923-3.96.923-2.532 0-4.611-1.303-2.08-1.302-3.29-3.673-1.212-2.37-1.212-5.447c0-2.05.404-3.824 1.212-5.392m13.832 2.298q-.724-1.32-1.953-2.027a5.2 5.2 0 0 0-2.64-.705q-1.41 0-2.603.687t-1.935 2.009q-.741 1.32-.741 3.13t.741 3.167q.74 1.358 1.953 2.081a4.95 4.95 0 0 0 2.585.724c.917 0 1.82-.235 2.64-.706q1.229-.705 1.952-2.027.723-1.32.723-3.166t-.723-3.167zM182.012 21.155q2.206 2.263 2.206 6.316v11.762h-5.063V28.158q0-2.388-1.193-3.673t-3.255-1.285c-1.374 0-2.501.43-3.308 1.285q-1.213 1.285-1.212 3.673v11.075h-5.062v-20.05h5.062v2.498q1.012-1.303 2.586-2.046 1.573-.741 3.453-.741 3.58 0 5.786 2.261M206.222 30.352h-14.646q.18 2.171 1.519 3.402 1.338 1.23 3.291 1.23 2.82 0 4.014-2.425h5.46q-.867 2.896-3.327 4.76t-6.038 1.863q-2.894 0-5.19-1.284t-3.58-3.637-1.284-5.43c0-2.05.422-3.895 1.266-5.464q1.266-2.352 3.544-3.62 2.278-1.266 5.244-1.266c1.977 0 3.609.41 5.117 1.23a8.66 8.66 0 0 1 3.507 3.493q1.248 2.262 1.248 5.193 0 1.086-.145 1.955m-5.1-3.402q-.036-1.955-1.41-3.131-1.375-1.176-3.363-1.176-1.881 0-3.164 1.14t-1.573 3.167z"/></g></svg>
